X: 24945
T: Maid In The Cherry Tree, The
R: reel
M: 4/4
K: Amixolydian
eAAF G2 cd|eA A/A/A gefd|eAAF G~E3|1 dBgB BAcd:|2 dBgB BAA2||
ea a/a/a bgag|ea a/a/a egdg|ea a/a/a bgaf|gedB BAA2|
ea a/a/a bgag|eaaf ~g3a|bgaf gefd|egdB BAcd||

